public/img/main/icon-foreign-language.svg

<?xml version="1.0" encoding="UTF-8"?>
<svg width="60px" height="60px" viewBox="0 0 60 60" version="1.1" xmlns="http://www.w3.org/2000/svg" xmlns:xlink="http://www.w3.org/1999/xlink">
    <!-- Generator: sketchtool 50.2 (55047) - http://www.bohemiancoding.com/sketch -->
    <title>83AE2687-1380-4AEC-9C15-D4E574247B7E</title>
    <desc>Created with sketchtool.</desc>
    <defs></defs>
    <g id="REZOOME-Web" stroke="none" stroke-width="1" fill="none" fill-rule="evenodd">
        <g id="수기입력용_아이콘" transform="translate(-227.000000, -118.000000)">
            <g id="icon-foreign-language" transform="translate(227.000000, 118.000000)">
                <g>
                    <rect id="Rectangle" fill="#FAFBFD" x="0" y="0" width="60" height="60" rx="5"></rect>
                    <path d="M29.2160146,17.9988952 C28.1296948,17.9988952 27.055671,18.1732169 26.0222703,18.5124827 C25.0043562,18.8487134 24.0485831,19.3405496 23.1800876,19.9755785 C21.3778427,21.2953648 20.0828428,23.1257424 19.438553,25.2674866 C19.0399867,26.5872729 18.9123194,27.9476435 19.058703,29.308014 C19.1988218,30.6215745 19.5910067,31.8791809 20.2167748,33.0497043 C20.8454223,34.217037 21.6766799,35.238025 22.694594,36.0815785 C23.5070186,36.757075 24.4097169,37.2956045 25.3872024,37.6879061 L25.0447848,38.8272616 C24.6773863,38.6839132 24.3194432,38.5220431 23.9739517,38.3416123 C23.6097828,38.1516484 23.161527,38.2793157 22.9498118,38.631033 L22.7879417,38.898858 C22.5575102,39.2817432 22.694594,39.7828791 23.0930046,39.9883685 C23.8245331,40.3680629 24.5965291,40.6793516 25.3902764,40.9222347 C26.3428198,41.2085814 27.3108888,41.3891677 28.2853392,41.4575734 L28.2853392,43.1322677 L25.7077909,43.1322677 C25.2782514,43.1322677 24.9295691,43.48095 24.9295691,43.9104895 L24.9295691,44.2217782 C24.9295691,44.6514734 25.2782514,45 25.7077909,45 L32.7336548,45 C33.1631943,45 33.5118766,44.6514734 33.5118766,44.2217782 L33.5118766,43.9104895 C33.5118766,43.48095 33.1631943,43.1322677 32.7336548,43.1322677 L30.1561065,43.1322677 L30.1561065,41.4575734 C30.3179766,41.4450829 30.4768117,41.4326314 30.6386818,41.4139541 C32.344544,41.2303326 33.9788097,40.722971 35.4978597,39.9073556 C37.0169096,39.0917403 38.3430774,38.0084556 39.4388525,36.6886693 C40.5750174,35.322073 41.4123451,33.7594036 41.9291622,32.0442807 C42.4457847,30.3290021 42.6108456,28.5639951 42.4208427,26.7958363 C42.2372602,25.0899742 41.7298596,23.4557085 40.9142832,21.9366585 C40.0986679,20.4176085 39.0153832,19.0914408 37.6955969,17.9957045 C36.3290005,16.8595007 34.7663312,16.022173 33.0511693,15.5053949 C32.235554,15.2594379 31.3982263,15.0914976 30.5546339,15.004259 C30.1094521,14.9576046 29.7203412,15.3000221 29.701625,15.7482779 L29.6891734,16.0595666 C29.6736868,16.4703899 29.9787109,16.8221461 30.386538,16.8626915 C30.7943262,16.906194 31.2019977,16.9715258 31.6067508,17.0588033 L31.2643332,18.1981589 C30.5888367,18.0673009 29.9039627,17.9988952 29.2160146,17.9988952 Z M21.399594,31.1414267 C20.8672904,29.728137 20.7333973,28.206052 21.0072925,26.7180141 L23.7125081,27.5336295 C23.4571735,28.5515435 23.2890776,29.5632319 23.2112554,30.5375266 C22.5918687,30.6776843 21.9847779,30.8799831 21.399594,31.1414267 Z M26.9374202,24.2277045 C27.6036169,24.7102798 28.3225771,25.1056165 29.088503,25.4137145 L28.5966279,27.0542059 L26.0439827,26.2854396 C26.3023912,25.560098 26.6042634,24.8689592 26.9374202,24.2277045 Z M32.4316659,20.8035287 C32.8270025,21.2953648 33.1227657,22.0518742 33.2814451,23.0137174 C33.3468158,23.4152799 33.3872444,23.8385936 33.4028867,24.2805846 C32.7398806,24.3211689 32.0767189,24.2775496 31.4199776,24.1561081 L32.4316659,20.8035287 Z M31.5040255,32.2061508 C30.8378288,31.7235366 30.118713,31.3281999 29.3529427,31.0201019 L29.8480085,29.3826455 L32.4004981,30.1516064 C32.1390545,30.8737573 31.8370266,31.5616664 31.5040255,32.2061508 Z M26.0097798,35.6303266 C25.6144432,35.1384515 25.31868,34.3819811 25.1600006,33.4201379 C25.0946299,33.0185754 25.0540457,32.5952617 25.0385591,32.153115 C25.7015651,32.1126475 26.3647268,32.1563057 27.0214681,32.2777472 L26.0097798,35.6303266 Z M30.0408908,34.441087 C29.287611,35.3407503 28.5000895,35.9446504 27.7996899,36.1688561 L28.8113782,32.8130471 C29.4245391,33.0744907 30.0004622,33.4044956 30.5297308,33.806058 C30.3708957,34.0302637 30.2059516,34.2418233 30.0408908,34.441087 Z M30.3833473,27.5927354 L30.8752223,25.9554346 C31.5506799,26.0954367 32.2293282,26.1639981 32.9140856,26.1639981 C33.0511693,26.1639981 33.1881364,26.1608074 33.3281384,26.1545427 C33.2503163,26.8706234 33.119575,27.6114516 32.9359536,28.3616963 L30.3833473,27.5927354 Z M28.4003993,21.9927294 C29.1538347,21.0930661 29.9413562,20.4892049 30.6417558,20.2649992 L29.6300675,23.6175786 C29.0167509,23.356135 28.4409835,23.026169 27.9117149,22.6246065 C28.07055,22.4035916 28.2354941,22.1918763 28.4003993,21.9927294 Z M28.0580984,28.841081 L27.5630327,30.4783817 C26.7538377,30.3102858 25.9319576,30.2449152 25.1101165,30.2791181 C25.1879387,29.5632319 25.31868,28.8224036 25.5024181,28.0721589 L28.0580984,28.841081 Z M31.4728577,35.6395874 C31.6160506,35.4652658 31.7592044,35.2846794 31.8993622,35.0978673 C32.1141125,35.35005 32.3101855,35.6178361 32.4939625,35.8948053 C31.933565,36.1344976 31.3453461,36.31201 30.7475161,36.424035 C30.9934731,36.1843427 31.2363562,35.9228991 31.4728577,35.6395874 Z M34.1562053,34.9516394 C34.1437538,34.9609391 34.134454,34.9671649 34.1220025,34.9765814 C33.7763553,34.4380519 33.3842093,33.9337253 32.9452533,33.4698273 C33.4184122,32.6137834 33.8417259,31.6768822 34.1904082,30.693171 L36.8986588,31.5087863 C36.3102843,32.8784177 35.3764182,34.0582019 34.1562053,34.9516394 Z M34.7258637,28.9002258 C34.9810815,27.8823117 35.1491774,26.8706234 35.2269996,25.8963287 C35.849577,25.7531359 36.4566678,25.5506815 37.0386609,25.2922729 C37.5711203,26.7055626 37.7048577,28.2278033 37.4309625,29.7158411 L34.7258637,28.9002258 Z M35.2549766,23.9600351 C35.2301903,23.5273049 35.186571,23.1102169 35.1212392,22.7086545 C35.0931065,22.5374846 35.0620944,22.3724238 35.0247008,22.2105536 C35.4604661,22.634023 35.8527677,23.1071819 36.1920335,23.6238044 C35.8869705,23.7545456 35.5756818,23.8666874 35.2549766,23.9600351 Z M27.6937739,20.0097814 C27.4479726,20.2495126 27.2050896,20.5109173 26.968588,20.7942678 C26.8253951,20.9653988 26.6820856,21.1491759 26.5420835,21.3358324 C26.3273332,21.0838053 26.1312602,20.8159802 25.9474832,20.53905 C26.5109157,20.2993577 27.0960996,20.1218064 27.6937739,20.0097814 Z M24.2852404,21.482177 C24.2976919,21.4729161 24.3069917,21.4666904 24.3194432,21.4572739 C24.6649348,21.9957644 25.0572364,22.5000911 25.4992274,22.9638334 C25.0260686,23.8198774 24.6027549,24.7569342 24.2540726,25.7406843 L21.5458219,24.925069 C22.1311614,23.5553987 23.0650275,22.3756145 24.2852404,21.482177 Z M22.2494122,32.8068213 C22.5544752,32.6761189 22.8687989,32.5640939 23.1863134,32.4706295 C23.2112554,32.9033597 23.2548748,33.3204477 23.3202065,33.7220101 C23.3481835,33.8932967 23.3793513,34.0582019 23.4167449,34.2201109 C22.9777889,33.7967972 22.588678,33.3236384 22.2494122,32.8068213 Z M39.267527,22.8238702 C40.7087548,25.5072178 41.0170085,28.5919722 40.1392521,31.5087863 C39.2613012,34.4256004 37.2970695,36.8256363 34.6138775,38.2637902 C32.2074602,39.5556383 29.4776139,39.9385234 26.8346949,39.3657911 L27.1771125,38.2264355 C27.852609,38.3633636 28.537483,38.43496 29.2222404,38.43496 C30.3087158,38.43496 31.382584,38.2605995 32.4161404,37.9213726 C33.4340544,37.5851419 34.3896719,37.0932668 35.2581674,36.4582378 C37.060529,35.1384515 38.3554122,33.3079572 38.9998576,31.1663298 C39.3982683,29.8465435 39.5259355,28.4861729 39.379552,27.1258024 C39.2395499,25.8122418 38.8472483,24.5546354 38.2216359,23.3841121 C37.5928327,22.2167794 36.7617307,21.1958303 35.7438167,20.3522379 C34.9312364,19.6767803 34.028538,19.1382508 33.0511693,18.7459492 L33.3934702,17.6065936 C35.9119126,18.5903049 37.9757178,20.4176085 39.267527,22.8238702 Z" id="Fill-1" fill="#D6D9DF"></path>
                </g>
            </g>
        </g>
    </g>
</svg>

<svg xmlns="http://www.w3.org/2000/svg" width="60" height="60" viewBox="0 0 60 60">
    <g fill="none" fill-rule="evenodd">
        <rect width="59" height="59" x=".5" y=".5" fill="#FAFBFD" stroke="#E1E5ED" rx="5"/>
        <path fill="#D6D9DF" d="M29.216 17.999a10.222 10.222 0 0 0-6.036 1.977 10.126 10.126 0 0 0-3.741 5.291 10.197 10.197 0 0 0 .778 7.782 10.189 10.189 0 0 0 5.17 4.639l-.342 1.14a10.77 10.77 0 0 1-1.071-.486.776.776 0 0 0-1.024.289l-.162.268a.776.776 0 0 0 .305 1.09c.732.38 1.504.69 2.297.933.953.287 1.92.467 2.895.536v1.674h-2.577a.779.779 0 0 0-.778.778v.312c0 .43.348.778.778.778h7.026c.43 0 .778-.349.778-.778v-.312a.779.779 0 0 0-.778-.778h-2.578v-1.674c.162-.013.32-.025.483-.044a13.215 13.215 0 0 0 4.859-1.507 13.235 13.235 0 0 0 6.431-7.863 13.215 13.215 0 0 0-1.015-10.108 13.234 13.234 0 0 0-7.863-6.43 13.444 13.444 0 0 0-2.496-.502.776.776 0 0 0-.853.744l-.013.312c-.015.41.29.762.698.803.407.043.815.109 1.22.196l-.343 1.14c-.675-.132-1.36-.2-2.048-.2zM21.4 31.14a8.27 8.27 0 0 1-.393-4.423l2.706.816a18.437 18.437 0 0 0-.502 3.004 9.68 9.68 0 0 0-1.811.603zm5.537-6.913c.667.482 1.386.878 2.152 1.186l-.492 1.64-2.553-.769c.258-.725.56-1.416.893-2.057zm5.495-3.424c.395.491.69 1.248.85 2.21.065.401.105.825.12 1.267a8.148 8.148 0 0 1-1.982-.125l1.012-3.352zm-.928 11.402a10.049 10.049 0 0 0-2.151-1.186l.495-1.637 2.552.769c-.26.722-.563 1.41-.896 2.054zM26.01 35.63c-.396-.492-.691-1.248-.85-2.21a10.094 10.094 0 0 1-.121-1.267 8.154 8.154 0 0 1 1.982.125L26.01 35.63zm4.03-1.189c-.752.9-1.54 1.504-2.24 1.728l1.011-3.356a8.07 8.07 0 0 1 1.719.993c-.16.224-.324.436-.49.635zm.343-6.848l.492-1.638a10.012 10.012 0 0 0 2.453.2 17.073 17.073 0 0 1-.392 2.207l-2.553-.77zm-1.983-5.6c.754-.9 1.541-1.504 2.242-1.728l-1.012 3.353a8.067 8.067 0 0 1-1.718-.993 11.7 11.7 0 0 1 .488-.632zm-.342 6.848l-.495 1.637a10 10 0 0 0-2.453-.199c.078-.716.209-1.457.392-2.207l2.556.77zm3.415 6.799c.143-.175.286-.355.426-.542.215.252.411.52.595.797-.56.24-1.149.417-1.746.529.245-.24.488-.501.725-.784zm2.683-.688l-.034.025a10.22 10.22 0 0 0-1.177-1.507c.473-.856.897-1.793 1.245-2.777l2.709.816a8.314 8.314 0 0 1-2.743 3.443zm.57-6.052a18.45 18.45 0 0 0 .501-3.004 9.976 9.976 0 0 0 1.812-.604 8.27 8.27 0 0 1 .392 4.424l-2.705-.816zm.529-4.94c-.025-.433-.068-.85-.134-1.251a7.902 7.902 0 0 0-.096-.498 8.4 8.4 0 0 1 1.167 1.413 8.17 8.17 0 0 1-.937.336zm-7.561-3.95c-.246.24-.489.5-.725.784-.144.171-.287.355-.427.542a8.303 8.303 0 0 1-.595-.797 8.426 8.426 0 0 1 1.747-.53zm-3.409 1.472l.034-.025c.346.539.738 1.043 1.18 1.507a18.642 18.642 0 0 0-1.245 2.777l-2.708-.816a8.282 8.282 0 0 1 2.74-3.443zM22.25 32.807c.305-.13.62-.243.937-.336.025.432.069.85.134 1.251.028.171.06.336.097.498a8.236 8.236 0 0 1-1.168-1.413zm17.019-9.983a11.333 11.333 0 0 1 .871 8.685 11.317 11.317 0 0 1-5.525 6.755 11.301 11.301 0 0 1-7.78 1.102l.343-1.14c.676.137 1.36.209 2.045.209a10.225 10.225 0 0 0 6.036-1.977A10.127 10.127 0 0 0 39 31.166a10.197 10.197 0 0 0-.778-7.782 10.192 10.192 0 0 0-5.17-4.638l.341-1.14a11.307 11.307 0 0 1 5.875 5.218z"/>
    </g>
</svg>
